packages/foundations/assets/icons/functional/images/technology/wifi_disabled_24.svg

<svg width="24" height="24" viewBox="0 0 24 24" fill="none" xmlns="http://www.w3.org/2000/svg">
<g clip-path="url(#clip0_187_658)">
<path fill-rule="evenodd" clip-rule="evenodd" d="M10 17.9882C10 19.1008 10.9412 20 12 20C13.1059 20 14 19.1006 14 17.9882C14 16.8994 13.0824 16 11.9529 16C10.8941 16 10 16.8994 10 17.9882ZM11.9296 9.93897C9.69953 9.93897 7.61033 11.0892 6.31925 12.9202C6.13132 13.1867 5.82629 13.3662 5.5446 13.3662C4.88732 13.3662 4.48826 12.8263 4.48826 12.4272C4.48826 12.216 4.58216 11.9461 4.70318 11.7725C6.35792 9.39926 9.06563 7.94366 11.9296 7.94366C12.745 7.94366 13.5444 8.05784 14.3092 8.27437L15.8551 6.72949C14.6952 6.26596 13.4052 6.01878 12 6.01878C8.78404 6.01878 5.69134 7.56808 3.80489 10.2423C3.55519 10.5962 3.22066 10.6667 2.93897 10.6667C2.53991 10.6667 2 10.1972 2 9.68075C2 9.46948 2.07042 9.23475 2.18779 9.07043C4.46479 5.87794 8.10329 4 12 4C13.8752 4 15.7033 4.43488 17.3426 5.24214L19.2929 3.29289C19.6834 2.90237 20.3166 2.90237 20.7071 3.29289C21.0676 3.65338 21.1182 4.2957 20.7071 4.70711L4.70711 20.7071C4.31658 21.0976 3.68342 21.0976 3.29289 20.7071C2.93241 20.3466 2.89622 19.6898 3.29289 19.2929L7.19501 15.3883C7.14481 15.2654 7.08712 14.7546 7.30438 14.422C8.04495 13.2885 9.18565 12.469 10.4711 12.1111L12.6096 9.97329C12.3852 9.95057 12.1583 9.93897 11.9296 9.93897ZM15.2188 12.9975C15.7454 13.3855 16.2066 13.8667 16.5755 14.4238C16.6948 14.604 16.7653 14.7981 16.7653 14.9859C16.7653 15.4789 16.3662 15.9953 15.7793 15.9953C15.4272 15.9953 15.118 15.831 14.9362 15.5481C14.6367 15.0823 14.2436 14.7023 13.79 14.4257L15.2188 12.9975ZM17.9172 10.2989C18.3938 10.7381 18.8257 11.2315 19.2029 11.7725C19.3239 11.9461 19.3944 12.1455 19.3944 12.3803C19.3944 13.0141 18.831 13.3662 18.385 13.3662C18.0798 13.3662 17.7803 13.2019 17.5843 12.922C17.2711 12.4744 16.9094 12.0676 16.5086 11.7083L17.9172 10.2989ZM20.6043 7.61029C21.0416 8.06078 21.445 8.54913 21.8087 9.07287C21.9296 9.24695 22 9.44601 22 9.65728C22 10.2207 21.6009 10.6667 21.0141 10.6667C20.6854 10.6667 20.3751 10.5023 20.1948 10.2425C19.89 9.80297 19.5584 9.39308 19.2012 9.01508L20.6043 7.61029Z" fill="#1A1C1F"/>
</g>
<defs>
<clipPath id="clip0_187_658">
<rect width="24" height="24" fill="white"/>
</clipPath>
</defs>
</svg>

<svg xmlns="http://www.w3.org/2000/svg" width="24" height="24" fill="none"><g clip-path="url(#a)"><path fill="#1A1C1F" fill-rule="evenodd" d="M10 17.988c0 1.113.941 2.012 2 2.012 1.106 0 2-.9 2-2.012C14 16.9 13.082 16 11.953 16 10.894 16 10 16.9 10 17.988m1.93-8.049c-2.23 0-4.32 1.15-5.61 2.981-.189.267-.494.446-.775.446-.658 0-1.057-.54-1.057-.939 0-.211.094-.48.215-.654 1.655-2.374 4.363-3.83 7.227-3.83a8.7 8.7 0 0 1 2.38.331l1.545-1.545c-1.16-.463-2.45-.71-3.855-.71-3.216 0-6.309 1.55-8.195 4.223-.25.354-.584.425-.866.425-.4 0-.939-.47-.939-.986 0-.212.07-.446.188-.61A12.03 12.03 0 0 1 12 4a12.1 12.1 0 0 1 5.343 1.242l1.95-1.95a1 1 0 0 1 1.414 0c.36.361.411 1.004 0 1.415l-16 16a1 1 0 0 1-1.414 0c-.36-.36-.397-1.017 0-1.414l3.902-3.905c-.05-.123-.108-.633.11-.966a5.58 5.58 0 0 1 3.166-2.31l2.139-2.139a7 7 0 0 0-.68-.034m3.289 3.059c.526.388.988.869 1.357 1.426.119.18.19.374.19.562 0 .493-.4 1.01-.987 1.01a.98.98 0 0 1-.843-.448 3.6 3.6 0 0 0-1.146-1.122zm2.698-2.7c.477.44.909.934 1.286 1.475.12.173.191.373.191.607 0 .634-.563.986-1.009.986a1 1 0 0 1-.8-.444 7 7 0 0 0-1.076-1.214zm2.687-2.688q.658.677 1.205 1.463c.12.174.191.373.191.584 0 .564-.4 1.01-.986 1.01-.329 0-.639-.165-.82-.425q-.457-.66-.993-1.227z" clip-rule="evenodd"/></g><defs><clipPath id="a"><path fill="#fff" d="M0 0h24v24H0z"/></clipPath></defs></svg>
